src/img/icons/comments.svg

<svg fill="none" height="21" viewBox="0 0 26 21" width="26" xmlns="http://www.w3.org/2000/svg"><path d="m16.75 7.375c0-3.78906-3.6719-6.875-8.125-6.875-4.49219 0-8.125 3.08594-8.125 6.875 0 1.5625.58594 2.9688 1.60156 4.1406-.625 1.2891-1.523435 2.2266-1.523435 2.2656-.117187.0782-.117187.1954-.078125.3126.039062.1171.15625.1562.273438.1562 1.523442 0 2.773442-.4297 3.750002-.9375 1.21094.625 2.57812.9375 4.10156.9375 4.4531 0 8.125-3.0469 8.125-6.875zm7.1484 10.4688c.9766-1.1719 1.6016-2.6172 1.6016-4.2188 0-3.78906-3.3594-6.875-7.5-6.875-.0391 0-.0391.03906-.0391.03906 0 .19532.0391.39063.0391.58594 0 3.8672-3.125 7.1094-7.3047 7.9297.8203 3.0078 3.75 5.1953 7.3047 5.1953 1.2891 0 2.5391-.3125 3.5938-.8203.9765.4297 2.1874.8203 3.5937.8203.1172 0 .2344-.0391.2734-.1562.0391-.1172 0-.2344-.0781-.3126 0-.039-.8594-.9374-1.4844-2.1874z" fill="#fff"/></svg>

<svg width="26" height="21" viewBox="0 0 26 21" fill="none" xmlns="http://www.w3.org/2000/svg">
<path d="M16.75 7.375C16.75 3.58594 13.0781 0.5 8.625 0.5C4.13281 0.5 0.5 3.58594 0.5 7.375C0.5 8.9375 1.08594 10.3438 2.10156 11.5156C1.47656 12.8047 0.578125 13.7422 0.578125 13.7812C0.460938 13.8594 0.460938 13.9766 0.5 14.0938C0.539062 14.2109 0.65625 14.25 0.773438 14.25C2.29688 14.25 3.54688 13.8203 4.52344 13.3125C5.73438 13.9375 7.10156 14.25 8.625 14.25C13.0781 14.25 16.75 11.2031 16.75 7.375ZM23.8984 17.8438C24.875 16.6719 25.5 15.2266 25.5 13.625C25.5 9.83594 22.1406 6.75 18 6.75C17.9609 6.75 17.9609 6.78906 17.9609 6.78906C17.9609 6.98438 18 7.17969 18 7.375C18 11.2422 14.875 14.4844 10.6953 15.3047C11.5156 18.3125 14.4453 20.5 18 20.5C19.2891 20.5 20.5391 20.1875 21.5938 19.6797C22.5703 20.1094 23.7812 20.5 25.1875 20.5C25.3047 20.5 25.4219 20.4609 25.4609 20.3438C25.5 20.2266 25.4609 20.1094 25.3828 20.0312C25.3828 19.9922 24.5234 19.0938 23.8984 17.8438Z" fill="white"/>
</svg>
